X:59
T:Paddy Resourse. JGi.059
O:Tealby,Lincolnshire
M:6/8
L:1/8
Q:3/8=90
R:jig
S:Joshua Gibbons MS,1823,Tealby,Lincs.
Z:VMP/R.Greig, 2009
K:C
cec AGA|ceg a2g|c’ge gec|ecAA2G|
cec AGA|ceg c’ag|gec dcd|e2c2c3:|
|:GBd Bdg|ceg fed|ceg gfe|fdd d2c|
ceg c’ba|gfe d2c|cBc Ggf|e2c2c3|]

